Numix/16/status/indicator-keyboard-Uk-2.svg

<?xml version="1.0" encoding="UTF-8" standalone="no"?>
<svg
   xmlns:dc="http://purl.org/dc/elements/1.1/"
   xmlns:cc="http://creativecommons.org/ns#"
   xmlns:rdf="http://www.w3.org/1999/02/22-rdf-syntax-ns#"
   xmlns:svg="http://www.w3.org/2000/svg"
   xmlns="http://www.w3.org/2000/svg"
   xmlns:sodipodi="http://sodipodi.sourceforge.net/DTD/sodipodi-0.dtd"
   xmlns:inkscape="http://www.inkscape.org/namespaces/inkscape"
   viewBox="0 0 16 16"
   id="svg2"
   version="1.1"
   inkscape:version="0.91 r13725"
   sodipodi:docname="indicator-keyboard-Uk-2.svg">
  <metadata
     id="metadata14">
    <rdf:RDF>
      <cc:Work
         rdf:about="">
        <dc:format>image/svg+xml</dc:format>
        <dc:type
           rdf:resource="http://purl.org/dc/dcmitype/StillImage" />
      </cc:Work>
    </rdf:RDF>
  </metadata>
  <defs
     id="defs12" />
  <sodipodi:namedview
     pagecolor="#ffffff"
     bordercolor="#666666"
     borderopacity="1"
     objecttolerance="10"
     gridtolerance="10"
     guidetolerance="10"
     inkscape:pageopacity="0"
     inkscape:pageshadow="2"
     inkscape:window-width="640"
     inkscape:window-height="480"
     id="namedview10"
     showgrid="false"
     inkscape:zoom="14.75"
     inkscape:cx="8"
     inkscape:cy="8"
     inkscape:window-x="65"
     inkscape:window-y="24"
     inkscape:window-maximized="0"
     inkscape:current-layer="svg2" />
  <path
     style="fill:#ececec;fill-opacity:1"
     d="M 1.5996094 0 C 0.71320937 2.9605947e-16 0 0.71320937 0 1.5996094 L 0 14.400391 C 2.9605947e-16 15.286791 0.71320937 16 1.5996094 16 L 14.400391 16 C 15.286791 16 16 15.286791 16 14.400391 L 16 1.5996094 C 16 0.71320937 15.286791 0 14.400391 0 L 1.5996094 0 z M 8.3984375 4.1113281 L 8.3984375 8.5390625 C 8.5484375 8.3950625 8.7163437 8.2309219 8.9023438 8.0449219 C 9.0883437 7.8589219 9.2749375 7.6705156 9.4609375 7.4785156 C 9.6529375 7.2865156 9.8320001 7.0999219 10 6.9199219 C 10.168 6.7399219 10.311641 6.5813594 10.431641 6.4433594 L 11.134766 6.4433594 C 10.996766 6.5873594 10.840016 6.7496875 10.666016 6.9296875 C 10.492016 7.1096875 10.309188 7.2980937 10.117188 7.4960938 C 9.9311876 7.6880937 9.7445937 7.8765 9.5585938 8.0625 L 9.0546875 8.5664062 C 9.2406875 8.6924063 9.4403906 8.8547344 9.6503906 9.0527344 C 9.8663906 9.2507344 10.075297 9.4671719 10.279297 9.7011719 C 10.489297 9.9291721 10.685234 10.166109 10.865234 10.412109 C 11.051234 10.652109 11.206031 10.879703 11.332031 11.095703 L 10.638672 11.095703 C 10.494672 10.855703 10.330531 10.622531 10.144531 10.394531 C 9.9645314 10.160531 9.7723594 9.9403283 9.5683594 9.7363281 C 9.3703594 9.5323281 9.1688438 9.3476875 8.9648438 9.1796875 C 8.7668437 9.0116875 8.5784375 8.8698594 8.3984375 8.7558594 L 8.3984375 11.095703 L 7.8125 11.095703 L 7.8125 4.2207031 L 8.3984375 4.1113281 z M 1.7050781 4.859375 L 2.3164062 4.859375 L 2.3164062 8.7011719 C 2.3164062 9.0431719 2.3555938 9.34175 2.4335938 9.59375 C 2.5175937 9.83975 2.6313906 10.043078 2.7753906 10.205078 C 2.9193906 10.367078 3.0948281 10.486453 3.2988281 10.564453 C 3.5028281 10.642453 3.7304219 10.681641 3.9824219 10.681641 C 4.2344219 10.681641 4.4620156 10.642453 4.6660156 10.564453 C 4.8700156 10.486453 5.0435 10.367078 5.1875 10.205078 C 5.3315 10.043078 5.4434844 9.83975 5.5214844 9.59375 C 5.6054844 9.34175 5.6464844 9.0431719 5.6464844 8.7011719 L 5.6464844 4.859375 L 6.2597656 4.859375 L 6.2597656 8.7832031 C 6.2597656 9.1252031 6.2168125 9.4460938 6.1328125 9.7460938 C 6.0548125 10.040094 5.9260938 10.297531 5.7460938 10.519531 C 5.5660937 10.741531 5.3291563 10.916969 5.0351562 11.042969 C 4.7471562 11.168969 4.3964219 11.230469 3.9824219 11.230469 C 3.5684219 11.230469 3.2139219 11.168969 2.9199219 11.042969 C 2.6319219 10.916969 2.39875 10.741531 2.21875 10.519531 C 2.03875 10.297531 1.9062656 10.040094 1.8222656 9.7460938 C 1.7442656 9.4460938 1.7050781 9.1252031 1.7050781 8.7832031 L 1.7050781 4.859375 z M 12.966797 8.7539062 C 13.360697 8.7539062 13.656569 8.851875 13.855469 9.046875 C 14.054369 9.237975 14.154297 9.5044563 14.154297 9.8476562 C 14.154297 9.9997563 14.126866 10.14475 14.072266 10.28125 C 14.017666 10.41385 13.943209 10.543169 13.849609 10.667969 C 13.759909 10.792769 13.658016 10.912297 13.541016 11.029297 C 13.424016 11.146297 13.304494 11.263859 13.183594 11.380859 C 13.082194 11.478359 12.982266 11.578288 12.884766 11.679688 C 12.791166 11.777187 12.704953 11.877116 12.626953 11.978516 C 12.552853 12.076016 12.492112 12.172031 12.445312 12.269531 C 12.402413 12.363131 12.380859 12.457181 12.380859 12.550781 L 12.380859 12.5625 L 14.294922 12.5625 L 14.294922 12.896484 L 11.960938 12.896484 C 11.960938 12.888684 11.959011 12.874969 11.955078 12.855469 L 11.955078 12.755859 C 11.955078 12.572559 11.988387 12.402094 12.054688 12.246094 C 12.120988 12.086194 12.205241 11.937275 12.306641 11.796875 C 12.411941 11.656475 12.525591 11.525197 12.650391 11.404297 C 12.779091 11.283397 12.902531 11.165834 13.019531 11.052734 C 13.117031 10.959134 13.209122 10.869003 13.294922 10.783203 C 13.384622 10.693503 13.462997 10.603366 13.529297 10.509766 C 13.595597 10.416166 13.646547 10.316237 13.685547 10.210938 C 13.724547 10.105638 13.744141 9.9900344 13.744141 9.8652344 C 13.744141 9.5922344 13.671638 9.39825 13.523438 9.28125 C 13.379137 9.16035 13.194956 9.0996094 12.972656 9.0996094 C 12.847856 9.0996094 12.736172 9.1152844 12.638672 9.1464844 C 12.541172 9.1776844 12.454959 9.2149125 12.380859 9.2578125 C 12.310659 9.2968125 12.251872 9.3379594 12.201172 9.3808594 C 12.150472 9.4237594 12.113244 9.4570688 12.089844 9.4804688 L 11.890625 9.2167969 C 11.914025 9.1894969 11.955172 9.1503094 12.013672 9.0996094 C 12.076072 9.0450094 12.152487 8.9921062 12.242188 8.9414062 C 12.335788 8.8907063 12.4416 8.8476 12.5625 8.8125 C 12.6834 8.7735 12.818597 8.7539063 12.966797 8.7539062 z "
     id="path4" />
</svg>

<svg xmlns="http://www.w3.org/2000/svg" viewBox="0 0 16 16">
 <path d="m 1.6 0 c -0.886 0 -1.6 0.713 -1.6 1.6 l 0 12.801 c 0 0.886 0.713 1.6 1.6 1.6 l 12.801 0 c 0.886 0 1.6 -0.713 1.6 -1.6 l 0 -12.801 c 0 -0.886 -0.713 -1.6 -1.6 -1.6 l -12.801 0 z m 6.799 4.111 l 0 4.428 c 0.15 -0.144 0.318 -0.308 0.504 -0.494 c 0.186 -0.186 0.373 -0.374 0.559 -0.566 c 0.192 -0.192 0.371 -0.379 0.539 -0.559 c 0.168 -0.18 0.312 -0.339 0.432 -0.477 l 0.703 0 c -0.138 0.144 -0.295 0.306 -0.469 0.486 c -0.174 0.18 -0.357 0.368 -0.549 0.566 c -0.186 0.192 -0.373 0.38 -0.559 0.566 l -0.504 0.504 c 0.186 0.126 0.386 0.288 0.596 0.486 c 0.216 0.198 0.425 0.414 0.629 0.648 c 0.21 0.228 0.406 0.465 0.586 0.711 c 0.186 0.24 0.341 0.468 0.467 0.684 l -0.693 0 c -0.144 -0.24 -0.308 -0.473 -0.494 -0.701 c -0.18 -0.234 -0.372 -0.454 -0.576 -0.658 c -0.198 -0.204 -0.4 -0.389 -0.604 -0.557 c -0.198 -0.168 -0.386 -0.31 -0.566 -0.424 l 0 2.34 l -0.586 0 l 0 -6.875 l 0.586 -0.109 z m -6.693 0.748 l 0.611 0 l 0 3.842 c 0 0.342 0.039 0.641 0.117 0.893 c 0.084 0.246 0.198 0.449 0.342 0.611 c 0.144 0.162 0.319 0.281 0.523 0.359 c 0.204 0.078 0.432 0.117 0.684 0.117 c 0.252 0 0.48 -0.039 0.684 -0.117 c 0.204 -0.078 0.377 -0.197 0.521 -0.359 c 0.144 -0.162 0.256 -0.365 0.334 -0.611 c 0.084 -0.252 0.125 -0.551 0.125 -0.893 l 0 -3.842 l 0.613 0 l 0 3.924 c 0 0.342 -0.043 0.663 -0.127 0.963 c -0.078 0.294 -0.207 0.551 -0.387 0.773 c -0.18 0.222 -0.417 0.397 -0.711 0.523 c -0.288 0.126 -0.639 0.188 -1.053 0.188 c -0.414 0 -0.769 -0.061 -1.063 -0.188 c -0.288 -0.126 -0.521 -0.301 -0.701 -0.523 c -0.18 -0.222 -0.312 -0.479 -0.396 -0.773 c -0.078 -0.3 -0.117 -0.621 -0.117 -0.963 l 0 -3.924 z m 11.262 3.895 c 0.394 0 0.69 0.098 0.889 0.293 c 0.199 0.191 0.299 0.458 0.299 0.801 c 0 0.152 -0.027 0.297 -0.082 0.434 c -0.055 0.133 -0.129 0.262 -0.223 0.387 c -0.09 0.125 -0.192 0.244 -0.309 0.361 c -0.117 0.117 -0.237 0.235 -0.357 0.352 c -0.101 0.098 -0.201 0.197 -0.299 0.299 c -0.094 0.097 -0.18 0.197 -0.258 0.299 c -0.074 0.097 -0.135 0.194 -0.182 0.291 c -0.043 0.094 -0.064 0.188 -0.064 0.281 l 0 0.012 l 1.914 0 l 0 0.334 l -2.334 0 c 0 -0.008 -0.002 -0.022 -0.006 -0.041 l 0 -0.1 c 0 -0.183 0.033 -0.354 0.1 -0.51 c 0.066 -0.16 0.151 -0.309 0.252 -0.449 c 0.105 -0.14 0.219 -0.272 0.344 -0.393 c 0.129 -0.121 0.252 -0.238 0.369 -0.352 c 0.098 -0.094 0.19 -0.184 0.275 -0.27 c 0.09 -0.09 0.168 -0.18 0.234 -0.273 c 0.066 -0.094 0.117 -0.194 0.156 -0.299 c 0.039 -0.105 0.059 -0.221 0.059 -0.346 c 0 -0.273 -0.073 -0.467 -0.221 -0.584 c -0.144 -0.121 -0.328 -0.182 -0.551 -0.182 c -0.125 0 -0.236 0.016 -0.334 0.047 c -0.098 0.031 -0.184 0.068 -0.258 0.111 c -0.07 0.039 -0.129 0.08 -0.18 0.123 c -0.051 0.043 -0.088 0.076 -0.111 0.1 l -0.199 -0.264 c 0.023 -0.027 0.065 -0.066 0.123 -0.117 c 0.062 -0.055 0.139 -0.108 0.229 -0.158 c 0.094 -0.051 0.199 -0.094 0.32 -0.129 c 0.121 -0.039 0.256 -0.059 0.404 -0.059 z" style="fill:#ececec;fill-opacity:1"/>
</svg>
